X: 1
T: Bella Ciao
R: reel
M: 4/4
L: 1/8
K: Amin
|:zEAB|"Am"c A4 EAB|c A4 EAB|
c2BA c2BA|"E"e2e2 eede|
"Dm"f f4 fed|"Am"f e4 edc|
"E7"B2e2c2B2|"Am"A4:|